X:4370
L:1/16
M:2/4
K:G
 g2d2 =f2>e2 | d2B2 c2Bc | d2e2 dedc | B2d2 A2G2 | g2d2 =f2>e2 | d2B2 c2Bc | d2e2 dedc |1 
 B2A2 G4 :|2 B2A2 G2 |: AB | c2Ac ecAc | ece2 e2dc | B2GB dBGB | dBd2 d2cB | c2Ac ecAc | 
 ece2 e2Bc | d2e2 dedc | B2A2G2 :|

